X:1
T:Title
%%score { ( 1 5 6 ) | ( 2 3 4 ) }
L:1/8
M:4/4
K:Eb
V:1 treble nm="Grand Piano"
V:5 treble 
V:6 treble 
V:2 bass 
V:3 bass 
V:4 bass 
V:1
 z4 z[Q:1/4=100] GGF | ED C4 z2 | C2 =B,4 z2 | F4 z4 | A2 G4 z2 | =B4 z ._B3 | A2 G4 z E | %7
 z2 z F- F z z D | z4 z2 z _G | D2 F2 E2 D2 |[M:5/8] C-C- C3 |[M:3/8] CE>G |[M:4/4] c2 c4 c=B | %13
 c2 c4 c>B | B2 A4 z2 |[M:5/8] G-G- G3 |[M:3/8] CE>G |[M:4/4] c2 c2- cdc=B | c2 c4 c>B | B2 A4 z2 | %20
[M:5/8] G-G- G3 |[M:3/8] z3 |[M:4/4] BA z2 z B2 A | z2 G4 z2 | z2 F4 z2 | G6 z2 | BA A4 z2 | %27
 AG G4 DE | F4 z4 |[M:5/8] C-C- C3 |] %30
V:2
 z8 | z4 z .D3 | z4 z .D3 | z2 z[K:treble] G- G .A3 | C,2 E,2 z[K:treble] G2 G | C,2 F,4 F,2 | %6
 C,2 [E,G,]4 E,2 | =B,,2 [D,F,]4 [D,F,]2 | C,2 E,4 E,2 | =B,,2 [D,F,G,]4 [D,F,G,]2 | %10
[M:5/8] C,2 E,3 |[M:3/8] z3 |[M:4/4] C,2 E,2 z[K:treble] d[K:bass] E,2 | %13
 C,2 F,2 z[K:treble] d[K:bass] F,2 | z4 z[K:treble] .c3 |[M:5/8][K:bass] z z z2 G,- |[M:3/8] G,3- | %17
[M:4/4] G,6 z2 | C,2 F,2 z[K:treble] d[K:bass] F,2 | z4 z[K:treble] .c3 | %20
[M:5/8][K:bass] C,2 E,2[K:treble] z |[M:3/8] Gc>B |[M:4/4][K:bass] C,2 [F,A,]2 F,4 | %23
 B,,2 [E,G,]2 E,4 | =B,,2 [F,G,]2 F,4 | C,2 E,2 G,[K:treble]GcB | z4 z[K:treble] .B3 | z4 G,2 z2 | %28
 =B,,2 [D,F,]6 |[M:5/8] C,2 E,2 E, |] %30
V:3
 x8 | C,2 E,2 z2 z C | D,2 F,2 z2 z E | =B,,2 z2[K:treble] z2 z B | z4 G,2[K:treble] z2 | x8 | x8 | %7
 x8 | x8 | x8 |[M:5/8] x5 |[M:3/8] x3 |[M:4/4] z4 G,2[K:treble][K:bass] z2 | %13
 z4 A,2[K:treble][K:bass] z2 | C,2 F,2 z2[K:treble] z A |[M:5/8][K:bass] C,2 E,2 z |[M:3/8] x3 | %17
[M:4/4] C,2 E,2 z2 E,2 | z4 A,2[K:treble][K:bass] z2 | C,2 F,2 z2[K:treble] z A | %20
[M:5/8][K:bass] z z z2[K:treble] G,- |[M:3/8] G, z z |[M:4/4][K:bass] x8 | x8 | x8 | %25
 x5[K:treble] x3 | C,2 F,2 z2[K:treble] z A | C,2 E,2 z D E,2 | x8 |[M:5/8] x5 |] %30
V:4
 x8 | z4 G,2 E,2 | z4 G,2 F,2 | z2 F,2[K:treble] A,2 F,2 | x5[K:treble] x3 | x8 | x8 | x8 | x8 | %9
 x8 |[M:5/8] x5 |[M:3/8] x3 |[M:4/4] x5[K:treble] x[K:bass] x2 | x5[K:treble] x[K:bass] x2 | %14
 z4 A,2[K:treble] F,2 |[M:5/8][K:bass] x5 |[M:3/8] x3 |[M:4/4] x8 | x5[K:treble] x[K:bass] x2 | %19
 z4 A,2[K:treble] F,2 |[M:5/8][K:bass] x4[K:treble] x |[M:3/8] x3 |[M:4/4][K:bass] x8 | x8 | x8 | %25
 x5[K:treble] x3 | z4 A,2[K:treble] F,2 | x8 | x8 |[M:5/8] x5 |] %30
V:5
 x8 | x8 | x8 | x8 | x8 | z2 z c- c z z A | z4 z .D3 | F4 z .E3 | E4- E .G3 | x8 |[M:5/8] z2 G,3 | %11
[M:3/8] x3 |[M:4/4] x8 | x8 | x8 |[M:5/8] x5 |[M:3/8] x3 |[M:4/4] x8 | x8 | x8 |[M:5/8] x5 | %21
[M:3/8] x3 |[M:4/4] z2 A4 z2 | AG z2 z DDE | F2 z2 z E2 F | x8 | x8 | x8 | z2 z G- G E2 D | %29
[M:5/8] z2 G,2 G, |] %30
V:6
 x8 | x8 | x8 | x8 | x8 | z2 A,4 A,2 | z4 z2 G,2 | z2 G,4 G,2 | z2 G,4 G,2 | x8 |[M:5/8] x5 | %11
[M:3/8] x3 |[M:4/4] x8 | x8 | x8 |[M:5/8] x5 |[M:3/8] x3 |[M:4/4] x8 | x8 | x8 |[M:5/8] x5 | %21
[M:3/8] x3 |[M:4/4] z4 A,4 | z4 G,4 | z4 G,4 | x8 | x8 | x8 | z2 G,6 |[M:5/8] x5 |] %30

